X: 3164
T: MISS STEWART ROBERTSON
Q: "Reel."
R: Reel.
%R: reel
B: James Kerr "Merry Melodies" v.3 p.19 #164
Z: 2016 John Chambers <jc:trillian.mit.edu>
M: C
L: 1/8
K: F
uB |\
   AFAc f2(cf) | dfcA BGGB |\
[1 AFAc f2(cf) | dfcf AFF :|\
[2 AFcA Bcde   | fcdB AFF ||
|: f |\
   afge f2(cB) | AcfA BGGf |\
[1 afge f2(cB) | Acfc AFF :|\
[2 AFcA Bcde   | fcdB AFF |]

%%sep 1 1 500
%%sep 1 1 500

